!!!COM: Palestrina, Giovanni Perluigi da
!!!OPR: Missa De beata virgine (1567)
!!!OMD: Sanctus
!!!OTL: First Section
**kern	**kern	**kern	**kern
*Ibass	*Itenor	*Icalto	*Icant
!Bassus	!Tenor	!Altus	!Cantus
*clefF4	*clefGv2	*clefG2	*clefG2
*k[b-]	*k[b-]	*k[b-]	*k[b-]
*?:X	*?:X	*?:X	*?:X
*M4/2	*M4/2	*M4/2	*M4/2
=1	=1	=1	=1
0r	1r	0g	0r
.	[1c	.	.
=2	=2	=2	=2
0r	1c]	0e	0cc
.	[1A	.	.
=3	=3	=3	=3
0r	1A]	0c	0a
.	1F	.	.
=4	=4	=4	=4
0r	2.B-	0d	0f
.	4c	.	.
.	4d	.	.
.	4e	.	.
.	[2f	.	.
=5	=5	=5	=5
0c	2f]	1c	0g
.	4e	.	.
.	4d	.	.
.	1e	2r	.
.	.	[2c	.
=6	=6	=6	=6
0A	2r	4c]	2.a
.	.	4d	.
.	2.c	2e	.
.	.	.	4g
.	.	2f	4a
.	4d	.	4b-
.	2e	2e	[2cc
=7	=7	=7	=7
0F	1.f	0a	4cc]
.	.	.	4a
.	.	.	2.dd
.	.	.	4cc
.	2e	.	[2cc
=8	=8	=8	=8
0G	0d	1g	2cc]
.	.	.	4b-
.	.	.	4a
.	.	1g	1b
=9	=9	=9	=9
2.A	2.c	1e	0cc
4G	4B-	.	.
4A	1A	1c	.
4B-	.	.	.
[2c	.	.	.
=10	=10	=10	=10
2c]	1G	1g	1dd
2B-	.	.	.
2.A	2.c	2r	1ee
.	.	[2a	.
4G	4B-	.	.
=11	=11	=11	=11
2F	4A	2a]	0ff
.	4F	.	.
2E	1c	2g	.
1D	.	2f	.
.	2B	2d	.
=12	=12	=12	=12
2C	1c	0g	1ee
1c	.	.	.
.	2G	.	1dd
2B	[2g	.	.
=13	=13	=13	=13
1c	4g]	2r	1cc
.	4f	.	.
.	4e	2.c	.
.	4d	.	.
1r	2e	.	1cc
.	.	4d	.
.	2c	4e	.
.	.	4c	.
=14	=14	=14	=14
2r	2d	2.f	0a
2.F	2c	.	.
.	.	4e	.
.	1f	2d	.
4G	.	.	.
4A	.	2c	.
4F	.	.	.
=15	=15	=15	=15
2B-	0r	2d	0f
2A	.	2c	.
1d	.	2B-	.
.	.	[2f	.
=16	=16	=16	=16
2c	0c	2f]	0g
2.C	.	4e	.
.	.	4d	.
.	.	1e	.
4D	.	.	.
4E	.	.	.
4C	.	.	.
=17	=17	=17	=17
2.F	0A	2c	2.f
.	.	1f	.
4E	.	.	4g
2D	.	.	4a
.	.	.	4b-
2C	.	2e	2cc
=18	=18	=18	=18
0D	0F	2.d	2b-
.	.	.	2.a
.	.	8c	.
.	.	8B-	.
.	.	2A	.
.	.	.	4g
.	.	2B	[2f
=19	=19	=19	=19
0C	0G	0c	2f]
.	.	.	4e
.	.	.	4d
.	.	.	1e
=20	=20	=20	=20
1F	2F	[0c	1f
.	1A	.	.
2r	.	.	1r
[2A	2F	.	.
=21	=21	=21	=21
2A]	2.A	1c]	2r
2F	.	.	1a
.	4B-	.	.
2A	2c	1r	.
2B-	2d	.	2f
=22	=22	=22	=22
2c	2e	2r	2.a
2d	2f	1a	.
.	.	.	4b-
2A	2e	.	2cc
2B-	2d	2f	[2dd
=23	=23	=23	=23
1F	2.f	1a	4dd]
.	.	.	4cc
.	.	.	1cc
.	4e	.	.
1G	1d	2.g	.
.	.	.	2b
.	.	4f	.
=24	=24	=24	=24
1C	2r	4e	1cc
.	.	4d	.
.	1c	2e	.
1F	.	1A	1r
.	2d	.	.
=25	=25	=25	=25
2G	2e	2r	0r
2A	1f	2c	.
1B-	.	1d	.
.	4e	.	.
.	4d	.	.
=26	=26	=26	=26
2.A	2c	2e	2r
.	4F	1f	2cc
4G	4G	.	.
2F	4A	.	2dd
.	4F	.	.
2E	[2c	2g	2ee
=27	=27	=27	=27
1D	2c]	2a	1.ff
.	2B	2d	.
[1C	1c	1g	.
.	.	.	4ee
.	.	.	4dd
=28	=28	=28	=28
1C]	1g	2r	4ee
.	.	.	4dd
.	.	2c	4cc
.	.	.	4b-
1r	2f	2d	2a
.	2e	2e	2g
=29	=29	=29	=29
1r	1d	1f	2a
.	.	.	2b
2r	1c	2e	1cc
2F	.	2a	.
=30	=30	=30	=30
2G	2r	2g	2b-
2A	2c	2.f	1a
1B-	2.d	.	.
.	.	4e	.
.	.	[2d	2g
.	4e	.	.
=31	=31	=31	=31
2.A	2f	2d]	1a
.	2e	2c	.
4G	.	.	.
2F	2d	2d	2r
2E	[2c	2e	2g
=32	=32	=32	=32
1D	2c]	1.f	2a
.	2B-	.	2b-
[1C	2A	.	2.cc
.	2G	4e	.
.	.	4d	4b-
=33	=33	=33	=33
1C]	2.c	1e	2a
.	.	.	2g
.	4B-	.	.
1D	4A	[1d	2f
.	4G	.	.
.	2F	.	2a
=34	=34	=34	=34
1BB-	2.B-	1d]	2g
.	.	.	1f
.	4A	.	.
1C	1G	1c	.
.	.	.	2e
=35	=35	=35	=35
[0F	[0F	[0c	[0f
=36	=36	=36	=36
0F]	0F]	0c]	0f]
*-	*-	*-	*-
!!!CDT: 1525/^1526/-1594/2/2
!!!OCY: Italia
!!!AGN: Mass (Paraphrase)
!!!AST: renaissance, vocal
!!!ASW: Gregorian Mass
!!!PWK: Masses, Book 2
!!!RNB: Cadence finals: G,D,E,F,C
!!!YOR: Le Opere Complete, v. 4, p. 1
!!!YOO: Rome, Italy: Fratelli Scalera
!!!END: 1992//
!!!EED: John Miller
!!!YEC: Copyright 2000, John Miller
!!!YEN: United States of America
!!!YEM: Rights to all derivative electronic formats reserved.
!!!YEM: Refer to licensing agreement for further details.
!!!YEM: This file must be accompanied by the licensing agreement.
!!!YEM: A copy of the licensing agreement may be found at http://www.music-cog.ohio-state.edu/HumdrumDatabases/Palestrina/license.txt
!!!EMD: converted to Humdrum by Bret Aarden
